!!!!SEGMENT: pl-wumfc--n26880--012_paderewski-ignacy-jan--manru-erster-akt-x-scene.krn
!!!cenid: 18xx:4338
!!!COM: Paderewski, Ignacy Jan
!!!COM-rismID: pe30029943
!!!CDT: 1860/11/18-1941/06/29
!!!CNT: Polish
!!!GTL: Manru
!!!OTL: Erster Akt. X. Scene
!!!OMV: 012
!!!PDT: 1901
!!!AGN:
!!!SMS-siglum: PL-Wumfc
!!!SMS-shelfmark: N26880
!!!SMS-shelfwork: 001-012 G
!!!SMS-variant:
!!!SMS-altvar:
!!!NIFC-rismSourceID: 1001177281
!!!NIFC-rismChildID: 1001177281
!!!NIFC-islandoraID: pl-wumfc:8766
!!!URL-pdf-islandora: https://repozytorium.nifc.pl/islandora/object/pl-wumfc:8766/datastream/PDF/view
!!!URL-scan: https://polish.musicsources.pl/pl/lokalizacje/galeria/druki-muzyczne/11969/106 @EN{Scan on Polish Music Sources Website} @PL{Skany w portalu Dziedzictwo Muzyki Polskiej w otwartym dostępie}
!!!ONB-nifc: UWAGA: skan 106-107
!!!AIN: 3 alto 1 arpa 1 barit 2 bass 1 cangl 1 cbass 1 cello 1 clarb 1 clars 2 cor 1 fagot 1 flt 1 oboe 1 picco 3 soprn 3 tenor 1 timpa 1 tromp 1 tromt 1 tuba 1 viola 4 violn
!!!key:
**kern	**dynam	**kern	**dynam	**kern	**dynam	**kern	**dynam	**kern	**dynam	**kern	**dynam	**kern	**dynam	**kern	**kern	**dynam	**kern	**text	**dynam	**kern	**text	**dynam	**kern	**kern	**text	**kern	**text	**dynam	**kern	**text	**dynam	**kern	**text	**dynam	**kern	**text	**dynam	**kern	**kern	**kern	**text	**kern	**kern	**dynam	**kern	**dynam	**kern	**dynam	**kern	**dynam	**kern	**dynam	**kern	**dynam	**kern	**dynam	**kern	**dynam	**kern	**dynam	**kern	**dynam	**kern	**dynam	**kern	**dynam	**kern	**dynam
*part33	*part33	*part32	*part32	*part31	*part31	*part30	*part30	*part29	*part29	*part28	*part28	*part27	*part27	*part26	*part26	*part26	*part25	*part25	*part25	*part24	*part24	*part24	*part23	*part22	*part22	*part21	*part21	*part21	*part20	*part20	*part20	*part19	*part19	*part19	*part18	*part18	*part18	*part17	*part16	*part15	*part15	*part14	*part13	*part13	*part12	*part12	*part11	*part11	*part10	*part10	*part9	*part9	*part8	*part8	*part7	*part7	*part6	*part6	*part5	*part5	*part4	*part4	*part3	*part3	*part2	*part2	*part1	*part1
*staff34	*	*staff33	*	*staff32	*	*staff31	*	*staff30	*	*staff29	*	*staff28	*	*staff27	*staff26	*	*staff25	*staff25	*	*staff24	*staff24	*	*staff23	*staff22	*staff22	*staff21	*staff21	*	*staff20	*staff20	*	*staff19	*staff19	*	*staff18	*staff18	*	*staff17	*staff16	*staff15	*staff15	*staff14	*staff13	*	*staff12	*	*staff11	*	*staff10	*	*staff9	*	*staff8	*	*staff7	*	*staff6	*	*staff5	*	*staff4	*	*staff3	*	*staff2	*	*staff1	*
*I"Contrabbasso	*	*I"Cello	*	*I"Viola	*	*I"Violino II	*	*I"Violino II	*	*I"Violino	*	*I"Violino I	*	*I"Arpa	*I"Arpa	*	*I"Männnerchor [Bass II]	*	*	*I"Männnerchor [Bass I]	*	*	*I"Männnerchor [Tenor II]	*I"Männnerchor [Tenor I]	*	*I"Mädchenchor [Alt II]	*	*	*I"Mädchenchor [Alt I]	*	*	*I"Mädchenchor [Sopr. II]	*	*	*I"Mädchenchor [Sopr. I]	*	*	*I"Urok	*I"Manru	*I"Hedwig	*	*I"Ulana	*I"Timpani	*	*I"Trombone	*	*I"Trombone	*	*I"Tromba in B♭	*	*I"Corno in F	*	*I"Corno in F	*	*I"Fagotto	*	*I"Clarinetto basso	*	*I"Clarinetto in B♭	*	*I"Corno inglese	*	*I"Oboe	*	*I"Flauto	*	*I"Flauto piccolo	*
*I'C.B.	*	*I'Vcll.	*	*I'Viola	*	*I'Viol. II.	*	*I'Vl. II	*	*I'Viol. I.	*	*I'Vl. I	*	*I'Arpa.	*I'Arpa.	*	*I'Männnerchor	*	*	*I'Männnerchor	*	*	*I'Männnerchor	*I'Männnerchor	*	*I'Mädchenchor	*	*	*I'Mädchenchor	*	*	*I'Mädchenchor	*	*	*I'Mädchenchor	*	*	*I'Urok	*I'Manru	*I'Hedwig	*	*I'Ulana	*I'Timp.	*	*I'3 & Tb	*	*I'1&2 Tromb.	*	*I'Trb.B.	*	*I'Cor 3&4	*	*I'1&2 Cor	*	*I'Fag.	*	*I'Cl.b.B	*	*I'Cl.B.	*	*I'Cor. ingl.	*	*I'Ob.	*	*I'2 gr.Fl.	*	*I'Picc.	*
*Icbass	*	*Icello	*	*Iviola	*	*Ivioln	*	*Ivioln	*	*Ivioln	*	*Ivioln	*	*Iarpa	*Iarpa	*	*Ibass	*	*	*Ibass	*	*	*Itenor	*Itenor	*	*Ialto	*	*	*Ialto	*	*	*Isoprn	*	*	*Isoprn	*	*	*Ibarit	*Itenor	*Ialto	*	*Isoprn	*Itimpa	*	*Ituba	*	*Itromt	*	*Itromp	*	*Icor	*	*Icor	*	*Ifagot	*	*Iclarb	*	*Iclars	*	*Icangl	*	*Ioboe	*	*Iflt	*	*Ipicco	*
*ICstr	*	*ICstr	*	*ICstr	*	*ICstr	*	*ICstr	*	*ICstr	*	*ICstr	*	*ICstr	*ICstr	*	*ICvox	*	*	*ICvox	*	*	*ICvox	*ICvox	*	*ICvox	*	*	*ICvox	*	*	*ICvox	*	*	*ICvox	*	*	*ICvox	*ICvox	*ICvox	*	*ICvox	*ICidio	*	*ICbras	*	*ICbras	*	*ICbras	*	*ICbras	*	*ICbras	*	*ICww	*	*ICww	*	*ICww	*	*ICww	*	*ICww	*	*ICww	*	*ICww	*
*clefF4	*	*clefF4	*	*clefC3	*	*clefG2	*	*clefG2	*	*clefG2	*	*clefG2	*	*clefF4	*clefG2	*	*clefF4	*	*	*clefF4	*	*	*clefGv2	*clefGv2	*	*clefG2	*	*	*clefG2	*	*	*clefG2	*	*	*clefG2	*	*	*clefG2	*clefG2	*clefG2	*	*clefG2	*clefF4	*	*clefF4	*	*clefF4	*	*clefG2	*	*clefG2	*	*clefG2	*	*clefF4	*	*clefF4	*	*clefG2	*	*clefG2	*	*clefG2	*	*clefG2	*	*clefG2	*
*ITrd0c0	*	*	*	*	*	*	*	*	*	*	*	*	*	*	*	*	*	*	*	*	*	*	*	*	*	*	*	*	*	*	*	*	*	*	*	*	*	*	*	*	*	*	*	*	*	*	*	*	*ITrd1c2	*	*ITrd4c7	*	*ITrd4c7	*	*	*	*ITrd1c2	*	*ITrd1c2	*	*ITrd4c7	*	*	*	*	*	*ITrd0c0	*
*k[b-e-]	*	*k[b-e-]	*	*k[b-e-]	*	*k[b-e-]	*	*k[b-e-]	*	*k[b-e-]	*	*k[b-e-]	*	*k[b-e-]	*k[b-e-]	*	*k[b-e-]	*	*	*k[b-e-]	*	*	*k[b-e-]	*k[b-e-]	*	*k[b-e-]	*	*	*k[b-e-]	*	*	*k[b-e-]	*	*	*k[b-e-]	*	*	*k[b-e-]	*k[b-e-]	*k[b-e-]	*	*k[b-e-]	*k[b-e-]	*	*k[b-e-]	*	*k[b-e-]	*	*k[b-e-]	*	*k[b-e-]	*	*k[b-e-]	*	*k[b-e-]	*	*k[b-e-]	*	*k[b-e-]	*	*k[b-e-]	*	*k[b-e-]	*	*k[b-e-]	*	*k[b-e-]	*
*a-:	*	*a-:	*	*a-:	*	*a-:	*	*a-:	*	*a-:	*	*a-:	*	*a-:	*a-:	*	*a-:	*	*	*a-:	*	*	*a-:	*a-:	*	*a-:	*	*	*a-:	*	*	*a-:	*	*	*a-:	*	*	*a-:	*a-:	*a-:	*	*a-:	*a-:	*	*a-:	*	*a-:	*	*a-:	*	*a-:	*	*a-:	*	*a-:	*	*a-:	*	*a-:	*	*a-:	*	*a-:	*	*a-:	*	*a-:	*
*M2/4	*	*M2/4	*	*M2/4	*	*M2/4	*	*M2/4	*	*M2/4	*	*M2/4	*	*M2/4	*M2/4	*	*M2/4	*	*	*M2/4	*	*	*M2/4	*M2/4	*	*M2/4	*	*	*M2/4	*	*	*M2/4	*	*	*M2/4	*	*	*M2/4	*M2/4	*M2/4	*	*M2/4	*M2/4	*	*M2/4	*	*M2/4	*	*M2/4	*	*M2/4	*	*M2/4	*	*M2/4	*	*M2/4	*	*M2/4	*	*M2/4	*	*M2/4	*	*M2/4	*	*M2/4	*
=1	=1	=1	=1	=1	=1	=1	=1	=1	=1	=1	=1	=1	=1	=1	=1	=1	=1	=1	=1	=1	=1	=1	=1	=1	=1	=1	=1	=1	=1	=1	=1	=1	=1	=1	=1	=1	=1	=1	=1	=1	=1	=1	=1	=1	=1	=1	=1	=1	=1	=1	=1	=1	=1	=1	=1	=1	=1	=1	=1	=1	=1	=1	=1	=1	=1	=1	=1	=1
*	*	*	*	*	*	*	*	*	*	*	*	*	*	*	*	*	*	*	*	*	*	*	*	*	*	*	*	*	*	*	*	*	*	*	*	*	*	*	*	*	*	*	*	*	*	*	*	*	*	*^	*	*	*	*	*	*	*	*	*	*	*	*	*	*	*	*	*	*
!	!	!	!	!	!	!	!	!	!	!	!	!	!	!	!	!	!	!	!	!	!	!	!	!	!	!	!	!	!	!	!	!	!	!	!	!	!	!	!	!	!	!	!	!	!	!	!	!	!	!LO:DY:a:rj	!LO:DY:rj	!	!	!	!	!	!	!	!	!	!	!	!	!	!	!	!	!	!
2r	.	2r	.	2r	.	2r	.	2r	.	2r	.	2r	.	2ryy	2ryy	.	4r	.	.	4r	.	.	2ryy	4r	.	2ryy	.	.	4r	.	.	2ryy	.	.	4r	.	.	2r	2r	2r	.	2r	2ryy	.	[2AA-X/ [2C-X	.	[2GG/ [2D-X	.	[2c-X/ [2e-	pp	pp	2r	.	2r	.	2r	.	2r	.	2r	.	2r	.	2r	.	2r	.	2r	.
.	.	.	.	.	.	.	.	.	.	.	.	.	.	.	.	.	[4C-/	.	.	[4C-/	Ah!	.	.	[4E-/	Ah!	.	.	.	[4c-/ [4e-/	Ah!	.	.	.	.	[4c-/ [4e-	Ah!	.	.	.	.	.	.	.	.	.	.	.	.	.	.	.	.	.	.	.	.	.	.	.	.	.	.	.	.	.	.	.	.	.
*	*	*	*	*	*	*	*	*	*	*	*	*	*	*	*	*	*	*	*	*	*	*	*	*	*	*	*	*	*	*	*	*	*	*	*	*	*	*	*	*	*	*	*	*	*	*	*	*	*	*v	*v	*	*	*	*	*	*	*	*	*	*	*	*	*	*	*	*	*	*
=2	=2	=2	=2	=2	=2	=2	=2	=2	=2	=2	=2	=2	=2	=2	=2	=2	=2	=2	=2	=2	=2	=2	=2	=2	=2	=2	=2	=2	=2	=2	=2	=2	=2	=2	=2	=2	=2	=2	=2	=2	=2	=2	=2	=2	=2	=2	=2	=2	=2	=2	=2	=2	=2	=2	=2	=2	=2	=2	=2	=2	=2	=2	=2	=2	=2	=2	=2	=2
!LO:TX:a:t=Contrabasso	!	!	!	!	!	!	!	!	!	!	!	!	!	!	!	!	!	!	!	!	!	!	!	!	!	!	!	!	!	!	!	!	!	!	!	!	!	!	!	!	!	!	!	!	!	!	!	!	!	!	!	!	!	!	!	!	!LO:TX:a:i:t=Clar. basso.	!	!	!	!	!	!	!	!	!	!	!
2r	.	2r	.	2r	.	2r	.	2r	.	2r	.	2r	.	2ryy	2ryy	.	8C-/]	.	.	8C-/]	.	.	2ryy	8E-/]	.	2ryy	.	.	8c-/] 8e-/]	.	.	2ryy	.	.	8c-/] 8e-/]	.	.	2r	2r	2r	.	2r	2ryy	.	2AA-X/_ 2C-X_	.	2GG/_ 2D-X_	.	2c-X/_ 2e-_	.	2r	.	2r	.	2r	.	2r	.	2r	.	2r	.	2r	.	2r	.	2r	.
.	.	.	.	.	.	.	.	.	.	.	.	.	.	.	.	.	8r	.	.	8r	.	.	.	8r	.	.	.	.	8r	.	.	.	.	.	8r	.	.	.	.	.	.	.	.	.	.	.	.	.	.	.	.	.	.	.	.	.	.	.	.	.	.	.	.	.	.	.	.	.
.	.	.	.	.	.	.	.	.	.	.	.	.	.	.	.	.	4r	.	.	4r	.	.	.	4r	.	.	.	.	4r	.	.	.	.	.	4r	.	.	.	.	.	.	.	.	.	.	.	.	.	.	.	.	.	.	.	.	.	.	.	.	.	.	.	.	.	.	.	.	.
=3	=3	=3	=3	=3	=3	=3	=3	=3	=3	=3	=3	=3	=3	=3	=3	=3	=3	=3	=3	=3	=3	=3	=3	=3	=3	=3	=3	=3	=3	=3	=3	=3	=3	=3	=3	=3	=3	=3	=3	=3	=3	=3	=3	=3	=3	=3	=3	=3	=3	=3	=3	=3	=3	=3	=3	=3	=3	=3	=3	=3	=3	=3	=3	=3	=3	=3	=3	=3
*^	*	*	*	*	*	*	*	*	*	*	*	*	*	*	*	*	*	*	*	*	*	*	*	*	*	*	*	*	*	*	*	*	*	*	*	*	*	*	*	*	*	*	*	*	*	*	*	*	*	*	*	*	*	*	*	*	*	*	*	*	*	*	*	*	*	*	*	*
*	*^	*	*	*	*	*	*	*	*	*	*	*	*	*	*	*	*	*	*	*	*	*	*	*	*	*	*	*	*	*	*	*	*	*	*	*	*	*	*	*	*	*	*	*	*	*	*	*	*	*	*	*	*	*	*	*	*	*	*	*	*	*	*	*	*	*	*	*	*
!!LO:TX:a:B:t=87.
*	*	*	*^	*	*	*	*	*	*	*	*	*	*	*	*	*	*	*	*	*	*	*	*	*	*	*	*	*	*	*	*	*	*	*	*	*	*	*	*	*	*	*	*	*	*	*	*	*	*	*	*	*	*	*	*	*	*	*	*	*	*	*	*	*	*	*	*	*	*	*
!	!	!	!LO:DY:rj	!LO:DY:rj	!	!	!	!	!	!	!	!	!	!	!	!	!	!	!	!	!	!	!	!	!	!	!	!	!	!	!	!LO:TX:b:i:t=Alle blicken Hedwig erstaunt \n und ehrfurchtsvoll an.)	!	!	!	!	!	!	!	!	!	!	!	!	!	!	!	!	!	!	!	!	!	!	!	!	!	!	!	!	!	!	!	!	!	!	!	!	!	!	!
(2e-/	(2A-X\	(2cc-X\	p	p	2r	.	2r	.	2r	.	2r	.	2r	.	2r	.	2ryy	2ryy	.	2r	.	.	2r	.	.	2ryy	2r	.	2ryy	.	.	2r	.	.	2ryy	.	.	2r	.	.	2r	2r	4r	.	2r	2ryy	.	2AA-X/] 2C-X]	.	2GG/] 2D-X]	.	2c-X/] 2e-]	.	2r	.	2r	.	2r	.	(2C-X\	p	2r	.	2r	.	2r	.	2r	.	2r	.
.	.	.	.	.	.	.	.	.	.	.	.	.	.	.	.	.	.	.	.	.	.	.	.	.	.	.	.	.	.	.	.	.	.	.	.	.	.	.	.	.	.	.	12cc-X\	Wie	.	.	.	.	.	.	.	.	.	.	.	.	.	.	.	.	.	.	.	.	.	.	.	.	.	.	.
.	.	.	.	.	.	.	.	.	.	.	.	.	.	.	.	.	.	.	.	.	.	.	.	.	.	.	.	.	.	.	.	.	.	.	.	.	.	.	.	.	.	.	12cc-\	die	.	.	.	.	.	.	.	.	.	.	.	.	.	.	.	.	.	.	.	.	.	.	.	.	.	.	.
.	.	.	.	.	.	.	.	.	.	.	.	.	.	.	.	.	.	.	.	.	.	.	.	.	.	.	.	.	.	.	.	.	.	.	.	.	.	.	.	.	.	.	12cc-\	Ver-	.	.	.	.	.	.	.	.	.	.	.	.	.	.	.	.	.	.	.	.	.	.	.	.	.	.	.
*	*	*	*v	*v	*	*	*	*	*	*	*	*	*	*	*	*	*	*	*	*	*	*	*	*	*	*	*	*	*	*	*	*	*	*	*	*	*	*	*	*	*	*	*	*	*	*	*	*	*	*	*	*	*	*	*	*	*	*	*	*	*	*	*	*	*	*	*	*	*	*	*
=4	=4	=4	=4	=4	=4	=4	=4	=4	=4	=4	=4	=4	=4	=4	=4	=4	=4	=4	=4	=4	=4	=4	=4	=4	=4	=4	=4	=4	=4	=4	=4	=4	=4	=4	=4	=4	=4	=4	=4	=4	=4	=4	=4	=4	=4	=4	=4	=4	=4	=4	=4	=4	=4	=4	=4	=4	=4	=4	=4	=4	=4	=4	=4	=4	=4	=4	=4	=4	=4	=4
*	*	*	*	*	*	*	*	*	*	*	*	*	*	*	*	*	*	*	*	*	*	*	*	*	*	*	*	*	*	*	*	*	*	*	*	*	*	*	*	*	*	*	*	*	*	*	*	*	*	*	*	*^	*	*	*	*	*	*	*	*	*	*	*	*	*	*	*	*	*	*
!	!	!	!	!	!	!	!	!	!	!	!	!	!	!	!	!	!	!	!	!	!	!	!	!	!	!	!	!	!	!	!	!	!	!	!	!	!	!	!	!	!	!	!	!	!	!	!	!LO:DY:rj	!	!	!	!LO:DY:a	!LO:DY:rj	!	!	!	!	!	!	!	!	!	!	!	!	!	!	!	!	!	!
2g-X/)	2E-\)	2b-\)	.	2r	.	2r	.	2r	.	2r	.	2r	.	2r	.	2ryy	2ryy	.	2r	.	.	2r	.	.	2ryy	2r	.	2ryy	.	.	2r	.	.	2ryy	.	.	2r	.	.	2r	2r	[4b-\	-pe-	2r	2ryy	.	2EE-/ 2BB-	pp	(2AA/ [2C-X	pp	2B-/ 2e-	pp	pp	2r	.	2r	.	2r	.	2BB-/	.	2r	.	2r	.	2r	.	2r	.	2r	.
.	.	.	.	.	.	.	.	.	.	.	.	.	.	.	.	.	.	.	.	.	.	.	.	.	.	.	.	.	.	.	.	.	.	.	.	.	.	.	.	.	.	12b-\]	.	.	.	.	.	.	.	.	.	.	.	.	.	.	.	.	.	.	.	.	.	.	.	.	.	.	.	.	.
.	.	.	.	.	.	.	.	.	.	.	.	.	.	.	.	.	.	.	.	.	.	.	.	.	.	.	.	.	.	.	.	.	.	.	.	.	.	.	.	.	.	12g-X/	-ste-	.	.	.	.	.	.	.	.	.	.	.	.	.	.	.	.	.	.	.	.	.	.	.	.	.	.	.	.
.	.	.	.	.	.	.	.	.	.	.	.	.	.	.	.	.	.	.	.	.	.	.	.	.	.	.	.	.	.	.	.	.	.	.	.	.	.	.	.	.	.	12e-/	-ten	.	.	.	.	.	.	.	.	.	.	.	.	.	.	.	.	.	.	.	.	.	.	.	.	.	.	.	.
*	*	*	*	*	*	*	*	*	*	*	*	*	*	*	*	*	*	*	*	*	*	*	*	*	*	*	*	*	*	*	*	*	*	*	*	*	*	*	*	*	*	*	*	*	*	*	*	*	*	*	*	*v	*v	*	*	*	*	*	*	*	*	*	*	*	*	*	*	*	*	*	*
=5	=5	=5	=5	=5	=5	=5	=5	=5	=5	=5	=5	=5	=5	=5	=5	=5	=5	=5	=5	=5	=5	=5	=5	=5	=5	=5	=5	=5	=5	=5	=5	=5	=5	=5	=5	=5	=5	=5	=5	=5	=5	=5	=5	=5	=5	=5	=5	=5	=5	=5	=5	=5	=5	=5	=5	=5	=5	=5	=5	=5	=5	=5	=5	=5	=5	=5	=5	=5	=5	=5
*	*	*	*	*	*	*	*	*	*	*	*	*	*	*	*	*	*	*	*	*	*	*	*	*	*	*	*	*	*	*	*	*	*	*	*	*	*	*	*	*	*	*	*	*	*	*	*^	*	*	*	*	*	*	*	*	*	*	*	*	*	*	*	*	*	*	*	*	*	*	*
(2d-X/	(2G-X\	(2b--\	.	2r	.	2r	.	2r	.	2r	.	2r	.	2r	.	2ryy	2ryy	.	2r	.	.	2r	.	.	2ryy	2r	.	2ryy	.	.	2r	.	.	2ryy	.	.	2r	.	.	2r	2r	12d-X/	sol-	2r	2ryy	.	2BB--/	2GG-X\	.	2GG-X/) 2C-X]	.	2B--X/ 2d-X	.	2r	.	2r	.	2r	.	2BB--X/)	.	2r	.	2r	.	2r	.	2r	.	2r	.
.	.	.	.	.	.	.	.	.	.	.	.	.	.	.	.	.	.	.	.	.	.	.	.	.	.	.	.	.	.	.	.	.	.	.	.	.	.	.	.	.	.	12d-/	-len	.	.	.	.	.	.	.	.	.	.	.	.	.	.	.	.	.	.	.	.	.	.	.	.	.	.	.	.
.	.	.	.	.	.	.	.	.	.	.	.	.	.	.	.	.	.	.	.	.	.	.	.	.	.	.	.	.	.	.	.	.	.	.	.	.	.	.	.	.	.	12d-/	sie	.	.	.	.	.	.	.	.	.	.	.	.	.	.	.	.	.	.	.	.	.	.	.	.	.	.	.	.
.	.	.	.	.	.	.	.	.	.	.	.	.	.	.	.	.	.	.	.	.	.	.	.	.	.	.	.	.	.	.	.	.	.	.	.	.	.	.	.	.	.	[4d-/	sein!	.	.	.	.	.	.	.	.	.	.	.	.	.	.	.	.	.	.	.	.	.	.	.	.	.	.	.	.
=6	=6	=6	=6	=6	=6	=6	=6	=6	=6	=6	=6	=6	=6	=6	=6	=6	=6	=6	=6	=6	=6	=6	=6	=6	=6	=6	=6	=6	=6	=6	=6	=6	=6	=6	=6	=6	=6	=6	=6	=6	=6	=6	=6	=6	=6	=6	=6	=6	=6	=6	=6	=6	=6	=6	=6	=6	=6	=6	=6	=6	=6	=6	=6	=6	=6	=6	=6	=6	=6	=6	=6
[2f-X/)	[2D-X\)	[2a-X\)	.	2r	.	2r	.	2r	.	2r	.	2r	.	2r	.	2ryy	2ryy	.	2r	.	.	2r	.	.	2ryy	2r	.	2ryy	.	.	2r	.	.	2ryy	.	.	2r	.	.	2r	2r	8d-X/]	.	2r	2ryy	.	[2AA-X/	[2DD-X\	.	[2GG-X/ [2BB-X	.	[2A-X/ [2d-X	.	2r	.	2r	.	2r	.	[>2AA-X/	.	2r	.	2r	.	2r	.	2r	.	2r	.
.	.	.	.	.	.	.	.	.	.	.	.	.	.	.	.	.	.	.	.	.	.	.	.	.	.	.	.	.	.	.	.	.	.	.	.	.	.	.	.	.	.	8r	.	.	.	.	.	.	.	.	.	.	.	.	.	.	.	.	.	.	.	.	.	.	.	.	.	.	.	.	.
.	.	.	.	.	.	.	.	.	.	.	.	.	.	.	.	.	.	.	.	.	.	.	.	.	.	.	.	.	.	.	.	.	.	.	.	.	.	.	.	.	.	4r	.	.	.	.	.	.	.	.	.	.	.	.	.	.	.	.	.	.	.	.	.	.	.	.	.	.	.	.	.
*v	*v	*v	*	*	*	*	*	*	*	*	*	*	*	*	*	*	*	*	*	*	*	*	*	*	*	*	*	*	*	*	*	*	*	*	*	*	*	*	*	*	*	*	*	*	*	*	*	*	*	*	*	*	*	*	*	*	*	*	*	*	*	*	*	*	*	*	*	*	*	*	*
!!LO:PB:g=original
=7	=7	=7	=7	=7	=7	=7	=7	=7	=7	=7	=7	=7	=7	=7	=7	=7	=7	=7	=7	=7	=7	=7	=7	=7	=7	=7	=7	=7	=7	=7	=7	=7	=7	=7	=7	=7	=7	=7	=7	=7	=7	=7	=7	=7	=7	=7	=7	=7	=7	=7	=7	=7	=7	=7	=7	=7	=7	=7	=7	=7	=7	=7	=7	=7	=7	=7	=7	=7	=7
!	!	!	!	!	!	!	!	!	!	!	!	!	!	!	!	!	!	!	!	!	!	!	!	!	!	!	!	!	!	!	!	!	!	!	!LO:TX:a:t=Sopr. I.	!	!	!	!	!	!	!	!	!	!	!	!	!	!	!	!	!	!	!	!	!	!	!	!	!	!	!	!	!	!	!	!	!	!
!LO:TX:a:i:t=divisi ex 3.	!	!	!	!	!	!	!	!	!	!	!	!	!	!	!	!	!LO:TX:a:t=Bass II.	!	!	!LO:TX:a:t=Bass I.	!	!	!LO:TX:a:t=Ten. II.	!LO:TX:a:t=Ten. I.	!	!LO:TX:a:t=Alt II.	!	!	!LO:TX:a:t=Alt I.	!	!	!LO:TX:a:t=Sopr. II.	!	!	!LO:TX:a:i:t=(Waforend Manru end Ulana einander fest umarmen entfernt\nsich das Volk imer mehr von dem Pagre, sudass es ganz vereinsamt bleibt.)	!	!	!	!	!	!	!	!	!	!	!	!	!	!	!	!	!	!	!	!	!	!	!	!	!	!	!	!	!	!	!	!	!	!
2D-X\_ 2f-X_ 2a-X_	.	2r	.	2r	.	2r	.	2r	.	2r	.	2r	.	2ryy	2ryy	.	4r	.	.	2r	.	.	2r	2r	.	2r	.	.	2r	.	.	2r	.	.	2r	.	.	2ryy	2ryy	2ryy	.	2ryy	2r	.	2AA-X/_	2DD-X\_	.	2GG-X/_ 2BB-X_	.	2A-X/_> 2d-X_>	.	2r	.	2r	.	2r	.	2AA-X/_	.	2r	.	2r	.	2r	.	2r	.	2r	.
!	!	!	!	!	!	!	!	!	!	!	!	!	!	!	!	!	!	!	!LO:DY:a	!	!	!	!	!	!	!	!	!	!	!	!	!	!	!	!	!	!	!	!	!	!	!	!	!	!	!	!	!	!	!	!	!	!	!	!	!	!	!	!	!	!	!	!	!	!	!	!	!	!
.	.	.	.	.	.	.	.	.	.	.	.	.	.	.	.	.	8r	.	pp	.	.	.	.	.	.	.	.	.	.	.	.	.	.	.	.	.	.	.	.	.	.	.	.	.	.	.	.	.	.	.	.	.	.	.	.	.	.	.	.	.	.	.	.	.	.	.	.	.	.
!	!	!	!	!	!	!	!	!	!	!	!	!	!	!	!	!	!LO:TX:a:i:t=(murmelnd.)	!	!	!	!	!	!	!	!	!	!	!	!	!	!	!	!	!	!	!	!	!	!	!	!	!	!	!	!	!	!	!	!	!	!	!	!	!	!	!	!	!	!	!	!	!	!	!	!	!	!	!	!
.	.	.	.	.	.	.	.	.	.	.	.	.	.	.	.	.	8D-X\	Ver-	.	.	.	.	.	.	.	.	.	.	.	.	.	.	.	.	.	.	.	.	.	.	.	.	.	.	.	.	.	.	.	.	.	.	.	.	.	.	.	.	.	.	.	.	.	.	.	.	.	.	.
=8	=8	=8	=8	=8	=8	=8	=8	=8	=8	=8	=8	=8	=8	=8	=8	=8	=8	=8	=8	=8	=8	=8	=8	=8	=8	=8	=8	=8	=8	=8	=8	=8	=8	=8	=8	=8	=8	=8	=8	=8	=8	=8	=8	=8	=8	=8	=8	=8	=8	=8	=8	=8	=8	=8	=8	=8	=8	=8	=8	=8	=8	=8	=8	=8	=8	=8	=8	=8	=8
!	!	!	!	!	!	!	!	!	!	!	!	!	!	!	!	!	!	!	!	!	!	!	!	!	!	!	!	!	!	!	!	!LO:TX:a:i:t=(murmelnd)	!	!	!	!	!	!	!	!	!	!	!	!	!	!	!	!	!	!	!	!	!	!	!	!	!	!	!	!	!	!	!	!	!	!	!	!	!
2D-X\_ 2f-X_ 2a-X_	.	2r	.	2r	.	2r	.	2r	.	2r	.	2r	.	2ryy	2ryy	.	8.D-X\	-pe-	.	2r	.	.	2r	2r	.	4r	.	.	2r	.	.	4r	.	.	2r	.	.	2ryy	2ryy	2ryy	.	2ryy	2r	.	2AA-X/_	2DD-X\_	.	2GG-X/_ 2BB-X_	.	2A-X/_> 2d-X_>	.	2r	.	2r	.	2r	.	2AA-X/]	.	2r	.	2r	.	2r	.	2r	.	2r	.
.	.	.	.	.	.	.	.	.	.	.	.	.	.	.	.	.	16D-\	-ste-	.	.	.	.	.	.	.	.	.	.	.	.	.	.	.	.	.	.	.	.	.	.	.	.	.	.	.	.	.	.	.	.	.	.	.	.	.	.	.	.	.	.	.	.	.	.	.	.	.	.	.
!	!	!	!	!	!	!	!	!	!	!	!	!	!	!	!	!	!LO:N:vis=8.	!	!	!	!	!	!	!	!	!LO:TX:a:i:t=(murmelnd)	!	!LO:DY:a	!	!	!	!	!	!	!	!	!	!	!	!	!	!	!	!	!	!	!	!	!	!	!	!	!	!	!	!	!	!	!	!	!	!	!	!	!	!	!	!	!
.	.	.	.	.	.	.	.	.	.	.	.	.	.	.	.	.	8D-\	-te!	.	.	.	.	.	.	.	8r	.	pp	.	.	.	8r	.	.	.	.	.	.	.	.	.	.	.	.	.	.	.	.	.	.	.	.	.	.	.	.	.	.	.	.	.	.	.	.	.	.	.	.	.
!	!	!	!	!	!	!	!	!	!	!	!	!	!	!	!	!	!	!	!	!	!	!	!	!	!	!	!	!	!	!	!	!	!	!LO:DY:a	!	!	!	!	!	!	!	!	!	!	!	!	!	!	!	!	!	!	!	!	!	!	!	!	!	!	!	!	!	!	!	!	!	!	!
.	.	.	.	.	.	.	.	.	.	.	.	.	.	.	.	.	8r	.	.	.	.	.	.	.	.	8d-X/	Ver-	.	.	.	.	8d-X/	Ver-	pp	.	.	.	.	.	.	.	.	.	.	.	.	.	.	.	.	.	.	.	.	.	.	.	.	.	.	.	.	.	.	.	.	.	.	.
=9	=9	=9	=9	=9	=9	=9	=9	=9	=9	=9	=9	=9	=9	=9	=9	=9	=9	=9	=9	=9	=9	=9	=9	=9	=9	=9	=9	=9	=9	=9	=9	=9	=9	=9	=9	=9	=9	=9	=9	=9	=9	=9	=9	=9	=9	=9	=9	=9	=9	=9	=9	=9	=9	=9	=9	=9	=9	=9	=9	=9	=9	=9	=9	=9	=9	=9	=9	=9	=9
*	*	*	*	*	*	*	*	*	*	*	*	*	*	*	*	*	*	*	*	*	*	*	*	*	*	*	*	*	*	*	*	*	*	*	*	*	*	*	*	*	*	*	*	*	*	*	*	*	*	*	*	*	*	*	*	*^	*	*	*	*	*	*	*	*	*	*	*	*	*
!	!	!LO:TX:a:i:t=Celli	!	!LO:TX:a:i:t=Viola	!	!	!	!	!	!	!	!	!	!	!	!	!	!	!	!	!	!	!	!	!	!	!	!	!	!	!	!	!	!	!LO:TX:a:i:t=(murmelnd)	!	!	!	!	!	!	!	!	!	!	!	!	!	!	!	!	!	!	!	!	!LO:TX:b:t=II do:rj	!	!	!	!	!	!	!	!	!	!	!	!	!	!
2D-X\] 2f-X] 2a-X]	.	2r	.	2r	.	2r	.	2r	.	2r	.	2r	.	2ryy	2ryy	.	2r	.	.	4r	.	.	2r	2r	.	8.d-X/	-pe-	.	4r	.	.	8.d-X/	-pe-	.	4r	.	.	2ryy	2ryy	2ryy	.	2ryy	2r	.	2AA-X/]	2DD-X\]	.	2GG-X/] 2BB-X]	.	2A-X/] 2d-X]	.	2r	.	2r	.	2r	(2DD-X\	p	[2AA-X/	.	2r	.	2r	.	2r	.	2r	.	2r	.
.	.	.	.	.	.	.	.	.	.	.	.	.	.	.	.	.	.	.	.	.	.	.	.	.	.	16d-/	-ste-	.	.	.	.	16d-/	-ste-	.	.	.	.	.	.	.	.	.	.	.	.	.	.	.	.	.	.	.	.	.	.	.	.	.	.	.	.	.	.	.	.	.	.	.	.	.
.	.	.	.	.	.	.	.	.	.	.	.	.	.	.	.	.	.	.	.	8r	.	.	.	.	.	8d-/	-te!	.	8r	.	.	8d-/	-te!	.	8r	.	.	.	.	.	.	.	.	.	.	.	.	.	.	.	.	.	.	.	.	.	.	.	.	.	.	.	.	.	.	.	.	.	.	.
!	!	!	!	!	!	!	!	!	!	!	!	!	!	!	!	!	!	!	!	!LO:TX:a:i:t=(murmelnd.)	!	!LO:DY:a	!	!	!	!	!	!	!	!	!LO:DY:a	!	!	!	!	!	!LO:DY:a	!	!	!	!	!	!	!	!	!	!	!	!	!	!	!	!	!	!	!	!	!	!	!	!	!	!	!	!	!	!	!	!	!
.	.	.	.	.	.	.	.	.	.	.	.	.	.	.	.	.	.	.	.	8D-X\	Ver-	pp	.	.	.	8r	.	.	8d-X/	Ver-	pp	8r	.	.	8d-X/	Ver-	pp	.	.	.	.	.	.	.	.	.	.	.	.	.	.	.	.	.	.	.	.	.	.	.	.	.	.	.	.	.	.	.	.	.
*	*	*	*	*	*	*	*	*	*	*	*	*	*	*	*	*	*	*	*	*	*	*	*	*	*	*	*	*	*	*	*	*	*	*	*	*	*	*	*	*	*	*	*	*	*v	*v	*	*	*	*	*	*	*	*	*	*	*	*	*	*	*	*	*	*	*	*	*	*	*	*
=10	=10	=10	=10	=10	=10	=10	=10	=10	=10	=10	=10	=10	=10	=10	=10	=10	=10	=10	=10	=10	=10	=10	=10	=10	=10	=10	=10	=10	=10	=10	=10	=10	=10	=10	=10	=10	=10	=10	=10	=10	=10	=10	=10	=10	=10	=10	=10	=10	=10	=10	=10	=10	=10	=10	=10	=10	=10	=10	=10	=10	=10	=10	=10	=10	=10	=10	=10	=10	=10
*	*	*	*	*	*	*	*	*	*	*	*	*	*	*	*	*	*	*	*	*	*	*	*	*	*	*	*	*	*	*	*	*	*	*	*	*	*	*	*	*	*	*	*	*	*	*	*	*	*	*	*	*	*^	*	*	*	*	*	*	*	*	*	*	*	*	*	*	*	*
*^	*	*	*	*	*	*	*	*	*	*	*	*	*	*	*	*	*	*	*	*	*	*	*	*	*	*	*	*	*	*	*	*	*	*	*	*	*	*	*	*	*	*	*	*	*	*	*	*	*	*	*	*	*	*	*	*	*	*	*	*	*	*	*	*	*	*	*	*	*	*
*	*^	*	*	*	*	*	*	*	*	*	*	*	*	*	*	*	*	*	*	*	*	*	*	*	*	*	*	*	*	*	*	*	*	*	*	*	*	*	*	*	*	*	*	*	*	*	*	*	*	*	*	*	*	*	*	*	*	*	*	*	*	*	*	*	*	*	*	*	*	*	*
!LO:TX:b:t=2.	!	!	!	!	!	!	!	!	!	!	!	!	!	!	!	!	!	!	!	!	!	!	!	!	!	!	!	!	!	!	!	!	!	!	!	!	!	!	!	!	!	!	!	!	!	!	!	!	!	!	!	!	!	!	!	!	!	!	!	!	!	!	!	!	!	!	!	!	!	!	!	!
!LO:TX:b:t=3.	!	!	!	!	!	!	!LO:DY:a	!	!	!	!	!	!	!	!	!	!	!	!	!	!	!	!	!	!	!	!	!	!	!	!LO:TX:a:i:t=(murmelnd)	!	!	!	!	!	!	!	!	!	!	!	!	!	!	!	!	!	!	!	!	!	!	!	!LO:TX:b:t=II:rj	!	!LO:DY:a	!	!	!	!	!	!	!LO:DY:a	!	!	!	!	!	!	!	!
2C/	2rA	2C\	.	2C/	.	[2En/	p	2r	.	2r	.	2r	.	2r	.	2ryy	2ryy	.	2r	.	.	8.F-X\	-pe-	.	4r	4r	.	2r	.	.	8.f-X/	-pe-	.	2r	.	.	8.f/	-pe-	.	2ryy	2ryy	2ryy	.	2ryy	2r	.	2r	.	2r	.	2r	.	[2E-/ [2e-	p	2r	[2G#X\	p	2r	2CC\	.	2AA-X/_	.	[2A-X/ [2f-X	p	2r	.	2r	.	2r	.	2r	.
.	.	.	.	.	.	.	.	.	.	.	.	.	.	.	.	.	.	.	.	.	.	16F-\	-ste-	.	.	.	.	.	.	.	16f-/	-ste-	.	.	.	.	16f/	-ste-	.	.	.	.	.	.	.	.	.	.	.	.	.	.	.	.	.	.	.	.	.	.	.	.	.	.	.	.	.	.	.	.	.	.
.	.	.	.	.	.	.	.	.	.	.	.	.	.	.	.	.	.	.	.	.	.	8F-\	-te!	.	8r	8r	.	.	.	.	8f-/	-te!	.	.	.	.	8f/	-te!	.	.	.	.	.	.	.	.	.	.	.	.	.	.	.	.	.	.	.	.	.	.	.	.	.	.	.	.	.	.	.	.	.	.
.	.	.	.	.	.	.	.	.	.	.	.	.	.	.	.	.	.	.	.	.	.	8r	.	.	8F-X/	8F-X/	Ver-	.	.	.	8r	.	.	.	.	.	8r	.	.	.	.	.	.	.	.	.	.	.	.	.	.	.	.	.	.	.	.	.	.	.	.	.	.	.	.	.	.	.	.	.	.	.
*	*v	*v	*	*	*	*	*	*	*	*	*	*	*	*	*	*	*	*	*	*	*	*	*	*	*	*	*	*	*	*	*	*	*	*	*	*	*	*	*	*	*	*	*	*	*	*	*	*	*	*	*	*	*	*	*	*	*	*	*	*	*	*	*	*	*	*	*	*	*	*	*	*
*v	*v	*	*	*	*	*	*	*	*	*	*	*	*	*	*	*	*	*	*	*	*	*	*	*	*	*	*	*	*	*	*	*	*	*	*	*	*	*	*	*	*	*	*	*	*	*	*	*	*	*	*	*	*	*	*	*	*	*	*	*	*	*	*	*	*	*	*	*	*	*	*
=11	=11	=11	=11	=11	=11	=11	=11	=11	=11	=11	=11	=11	=11	=11	=11	=11	=11	=11	=11	=11	=11	=11	=11	=11	=11	=11	=11	=11	=11	=11	=11	=11	=11	=11	=11	=11	=11	=11	=11	=11	=11	=11	=11	=11	=11	=11	=11	=11	=11	=11	=11	=11	=11	=11	=11	=11	=11	=11	=11	=11	=11	=11	=11	=11	=11	=11	=11	=11	=11	=11
!LO:TX:a:i:t=unis	!	!	!	!	!	!	!	!	!	!	!	!	!	!	!	!	!	!	!	!	!	!	!	!	!	!	!	!	!	!	!	!	!	!	!	!	!	!	!	!	!	!	!	!	!	!	!	!	!	!	!	!	!	!	!	!	!	!	!	!	!	!	!	!	!	!	!	!	!	!
2C-X/	>]	2C-X/	>]	(2En/]	.	2r	.	2r	.	2r	.	2r	.	2ryy	2ryy	.	4r	.	.	2r	.	.	8.A-X/	8.A-X/	-pe-	2r	.	.	2r	.	.	2r	.	.	2r	.	.	2ryy	2ryy	2ryy	.	2ryy	2r	.	2r	.	2r	.	2r	.	2E-/] 2e-]	.	2r	2G#X\]	.	2r	2CC-X\)	.	4AA-X/]	.	2A-X/] 2f-X]	.	2r	.	2r	.	2r	.	2r	.
.	.	.	.	.	.	.	.	.	.	.	.	.	.	.	.	.	.	.	.	.	.	.	16A-/	16A-/	-ste-	.	.	.	.	.	.	.	.	.	.	.	.	.	.	.	.	.	.	.	.	.	.	.	.	.	.	.	.	.	.	.	.	.	.	.	.	.	.	.	.	.	.	.	.	.
.	.	.	.	.	.	.	.	.	.	.	.	.	.	.	.	.	8r	.	.	.	.	.	8A-/	8A-/	-te!	.	.	.	.	.	.	.	.	.	.	.	.	.	.	.	.	.	.	.	.	.	.	.	.	.	.	.	.	.	.	.	.	.	4r	.	.	.	.	.	.	.	.	.	.	.
.	.	.	.	.	.	.	.	.	.	.	.	.	.	.	.	.	8C-X/	Ver-	.	.	.	.	8r	8r	.	.	.	.	.	.	.	.	.	.	.	.	.	.	.	.	.	.	.	.	.	.	.	.	.	.	.	.	.	.	.	.	.	.	.	.	.	.	.	.	.	.	.	.	.	.
=12	=12	=12	=12	=12	=12	=12	=12	=12	=12	=12	=12	=12	=12	=12	=12	=12	=12	=12	=12	=12	=12	=12	=12	=12	=12	=12	=12	=12	=12	=12	=12	=12	=12	=12	=12	=12	=12	=12	=12	=12	=12	=12	=12	=12	=12	=12	=12	=12	=12	=12	=12	=12	=12	=12	=12	=12	=12	=12	=12	=12	=12	=12	=12	=12	=12	=12	=12	=12	=12	=12
*	*	*	*	*	*	*	*	*	*	*	*	*	*	*	*	*	*	*	*	*	*	*	*	*	*	*	*	*	*	*	*	*	*	*	*	*	*	*	*	*	*	*	*	*	*	*	*	*	*	*	*^	*	*	*	*	*	*	*	*	*	*	*	*	*	*	*	*	*	*	*
*	*	*	*	*	*	*	*	*	*	*	*	*	*	*	*	*	*	*	*	*	*	*	*	*	*	*	*	*	*	*	*	*	*	*	*	*	*	*	*	*	*	*	*	*	*	*	*	*	*	*	*	*	*	*	*	*	*	*	*^	*	*	*	*	*	*	*	*	*	*	*	*
*	*	*	*	*	*	*	*	*	*	*	*	*	*	*	*	*	*	*	*	*	*	*	*	*	*	*	*	*	*	*	*	*	*	*	*	*	*	*	*	*	*	*	*	*	*	*	*	*	*	*	*	*	*^	*	*	*^	*	*	*	*	*	*	*	*	*	*	*	*	*	*	*	*
!!LO:TX:a:B:t=88.
!!LO:TX:a:i:t=Tempo I.
!LO:TX:b:i:t=Tempo I.	!	!	!	!	!	!	!	!	!	!	!	!LO:TX:a:t=Tempo I.	!	!	!	!	!	!	!	!	!	!	!	!	!	!	!	!	!	!	!	!	!	!	!	!	!	!	!	!	!	!	!LO:TX:t=P:problem:N:vis=2BB-tt/ (in clefF4)	!LO:DY:a:rj	!	!	!	!	!	!	!	!	!LO:DY:a:rj	!LO:DY:b:rj	!	!	!LO:DY:a:rj	!LO:DY:b:rj	!	!	!LO:DY:a:rj	!LO:DY:rj	!	!	!	!LO:DY:a	!	!	!	!	!	!	!	!
[2BB-/	pp	[2BB-/	pp	8F/)	.	2r	.	2r	.	2r	.	2r	.	2ryy	2ryy	.	8.BB-/	-pe-	.	2r	.	.	2r	2r	.	2r	.	.	2r	.	.	2r	.	.	2r	.	.	2ryy	2ryy	2ryy	.	2ryy	2Rg-XTT/	ppp	2r	.	2r	.	2r	.	(2f/	[2BB-\	pp	pp	[2b-/	(2A-X\	mf	p	(4f/	[>2BBB-\	p	pp	2r	.	((2A-/ 2fnX	pp	2r	.	2r	.	2r	.	2r	.
.	.	.	.	8r	.	.	.	.	.	.	.	.	.	.	.	.	.	.	.	.	.	.	.	.	.	.	.	.	.	.	.	.	.	.	.	.	.	.	.	.	.	.	.	.	.	.	.	.	.	.	.	.	.	.	.	.	.	.	.	.	.	.	.	.	.	.	.	.	.	.	.	.	.	.
.	.	.	.	.	.	.	.	.	.	.	.	.	.	.	.	.	16BB-/	-ste-	.	.	.	.	.	.	.	.	.	.	.	.	.	.	.	.	.	.	.	.	.	.	.	.	.	.	.	.	.	.	.	.	.	.	.	.	.	.	.	.	.	.	.	.	.	.	.	.	.	.	.	.	.	.	.	.
.	.	.	.	4r	.	.	.	.	.	.	.	.	.	.	.	.	8BB-/	-te!	.	.	.	.	.	.	.	.	.	.	.	.	.	.	.	.	.	.	.	.	.	.	.	.	.	.	.	.	.	.	.	.	.	.	.	.	.	.	.	.	8d/L)	.	.	.	.	.	.	.	.	.	.	.	.	.	.	.
.	.	.	.	.	.	.	.	.	.	.	.	.	.	.	.	.	8r	.	.	.	.	.	.	.	.	.	.	.	.	.	.	.	.	.	.	.	.	.	.	.	.	.	.	.	.	.	.	.	.	.	.	.	.	.	.	.	.	.	8f/J	.	.	.	.	.	.	.	.	.	.	.	.	.	.	.
*	*	*	*	*	*	*	*	*	*	*	*	*	*	*	*	*	*	*	*	*	*	*	*	*	*	*	*	*	*	*	*	*	*	*	*	*	*	*	*	*	*	*	*	*	*	*	*	*	*	*	*	*	*v	*v	*	*	*v	*v	*	*	*	*	*	*	*	*	*	*	*	*	*	*	*	*
*	*	*	*	*	*	*	*	*	*	*	*	*	*	*	*	*	*	*	*	*	*	*	*	*	*	*	*	*	*	*	*	*	*	*	*	*	*	*	*	*	*	*	*	*	*	*	*	*	*	*	*	*	*	*	*	*	*	*	*v	*v	*	*	*	*	*	*	*	*	*	*	*	*
=13	=13	=13	=13	=13	=13	=13	=13	=13	=13	=13	=13	=13	=13	=13	=13	=13	=13	=13	=13	=13	=13	=13	=13	=13	=13	=13	=13	=13	=13	=13	=13	=13	=13	=13	=13	=13	=13	=13	=13	=13	=13	=13	=13	=13	=13	=13	=13	=13	=13	=13	=13	=13	=13	=13	=13	=13	=13	=13	=13	=13	=13	=13	=13	=13	=13	=13	=13	=13	=13	=13	=13
2BB-/_	.	2BB-/_	.	2r	.	2r	.	2r	.	2r	.	2r	.	2ryy	2ryy	.	2r	.	.	2r	.	.	2r	2r	.	2r	.	.	2r	.	.	2r	.	.	2r	.	.	2ryy	2ryy	2ryy	.	2ryy	2Rg-XTTT/	.	2r	.	2r	.	2r	.	2e-/)	2BB-\_	.	2b-/_	2G\)	.	(16en/LL	2BBB-\_>	.	2r	.	2G/)) 2eX	.	2r	.	2r	.	2r	.	2r	.
.	.	.	.	.	.	.	.	.	.	.	.	.	.	.	.	.	.	.	.	.	.	.	.	.	.	.	.	.	.	.	.	.	.	.	.	.	.	.	.	.	.	.	.	.	.	.	.	.	.	.	.	.	.	.	.	.	16d/J	.	.	.	.	.	.	.	.	.	.	.	.	.	.
.	.	.	.	.	.	.	.	.	.	.	.	.	.	.	.	.	.	.	.	.	.	.	.	.	.	.	.	.	.	.	.	.	.	.	.	.	.	.	.	.	.	.	.	.	.	.	.	.	.	.	.	.	.	.	.	.	8c/J	.	.	.	.	.	.	.	.	.	.	.	.	.	.
.	.	.	.	.	.	.	.	.	.	.	.	.	.	.	.	.	.	.	.	.	.	.	.	.	.	.	.	.	.	.	.	.	.	.	.	.	.	.	.	.	.	.	.	.	.	.	.	.	.	.	.	.	.	.	.	.	8e/L)	.	.	.	.	.	.	.	.	.	.	.	.	.	.
.	.	.	.	.	.	.	.	.	.	.	.	.	.	.	.	.	.	.	.	.	.	.	.	.	.	.	.	.	.	.	.	.	.	.	.	.	.	.	.	.	.	.	.	.	.	.	.	.	.	.	.	.	.	.	.	.	8g/J	.	.	.	.	.	.	.	.	.	.	.	.	.	.
=14	=14	=14	=14	=14	=14	=14	=14	=14	=14	=14	=14	=14	=14	=14	=14	=14	=14	=14	=14	=14	=14	=14	=14	=14	=14	=14	=14	=14	=14	=14	=14	=14	=14	=14	=14	=14	=14	=14	=14	=14	=14	=14	=14	=14	=14	=14	=14	=14	=14	=14	=14	=14	=14	=14	=14	=14	=14	=14	=14	=14	=14	=14	=14	=14	=14	=14	=14	=14	=14	=14	=14
2BB-/_	.	2BB-/_	.	2r	.	2r	.	2r	.	2r	.	2r	.	2ryy	2ryy	.	2r	.	.	2r	.	.	2r	2r	.	2r	.	.	2r	.	.	2r	.	.	2r	.	.	2ryy	2ryy	2ryy	.	2ryy	2Rg-XTTT/	.	2r	.	2r	.	2r	.	(2f/	2BB-\_	.	2b-/_	(2A-X\	.	(4f/	2BBB-\_>	.	2r	.	((2A-X/ 2f	.	2r	.	2r	.	2r	.	2r	.
.	.	.	.	.	.	.	.	.	.	.	.	.	.	.	.	.	.	.	.	.	.	.	.	.	.	.	.	.	.	.	.	.	.	.	.	.	.	.	.	.	.	.	.	.	.	.	.	.	.	.	.	.	.	.	.	.	8d/L)	.	.	.	.	.	.	.	.	.	.	.	.	.	.
.	.	.	.	.	.	.	.	.	.	.	.	.	.	.	.	.	.	.	.	.	.	.	.	.	.	.	.	.	.	.	.	.	.	.	.	.	.	.	.	.	.	.	.	.	.	.	.	.	.	.	.	.	.	.	.	.	8f/J	.	.	.	.	.	.	.	.	.	.	.	.	.	.
=15	=15	=15	=15	=15	=15	=15	=15	=15	=15	=15	=15	=15	=15	=15	=15	=15	=15	=15	=15	=15	=15	=15	=15	=15	=15	=15	=15	=15	=15	=15	=15	=15	=15	=15	=15	=15	=15	=15	=15	=15	=15	=15	=15	=15	=15	=15	=15	=15	=15	=15	=15	=15	=15	=15	=15	=15	=15	=15	=15	=15	=15	=15	=15	=15	=15	=15	=15	=15	=15	=15	=15
2BB-/]	.	2BB-/]	.	2r	.	2r	.	2r	.	2r	.	2r	.	2ryy	2ryy	.	2r	.	.	2r	.	.	2r	2r	.	2r	.	.	2r	.	.	2r	.	.	2r	.	.	2ryy	2ryy	2ryy	.	2ryy	2Rg-XTTT/	.	2r	.	2r	.	2r	.	2e-/)	2BB-\]	.	2b-/]	2G\)	.	(<16en/LL	2BBB-\]	.	2r	.	2G/)) 2eX	.	2r	.	2r	.	2r	.	2r	.
.	.	.	.	.	.	.	.	.	.	.	.	.	.	.	.	.	.	.	.	.	.	.	.	.	.	.	.	.	.	.	.	.	.	.	.	.	.	.	.	.	.	.	.	.	.	.	.	.	.	.	.	.	.	.	.	.	16d/JJ	.	.	.	.	.	.	.	.	.	.	.	.	.	.
.	.	.	.	.	.	.	.	.	.	.	.	.	.	.	.	.	.	.	.	.	.	.	.	.	.	.	.	.	.	.	.	.	.	.	.	.	.	.	.	.	.	.	.	.	.	.	.	.	.	.	.	.	.	.	.	.	4.c/)	.	.	.	.	.	.	.	.	.	.	.	.	.	.
=16	=16	=16	=16	=16	=16	=16	=16	=16	=16	=16	=16	=16	=16	=16	=16	=16	=16	=16	=16	=16	=16	=16	=16	=16	=16	=16	=16	=16	=16	=16	=16	=16	=16	=16	=16	=16	=16	=16	=16	=16	=16	=16	=16	=16	=16	=16	=16	=16	=16	=16	=16	=16	=16	=16	=16	=16	=16	=16	=16	=16	=16	=16	=16	=16	=16	=16	=16	=16	=16	=16	=16
!	!	!	!	!	!	!	!	!	!	!	!	!	!	!	!	!	!	!	!	!	!	!	!	!	!	!	!	!	!	!	!	!	!	!	!	!	!	!	!	!	!	!	!	!	!	!	!	!	!	!	!	!	!LO:DY:rj	!	!	!LO:DY:rj	!	!	!	!	!	!	!	!	!	!	!	!	!	!	!
[2BB-/	.	[2BB-/	.	2r	.	2r	.	2r	.	2r	.	2r	.	2ryy	2ryy	.	2r	.	.	2r	.	.	2r	2r	.	2r	.	.	2r	.	.	2r	.	.	2r	.	.	2ryy	2ryy	2ryy	.	2ryy	2Rg-XTTT/	.	2r	.	2r	.	2r	.	(2f/	[2BB-\	p	[2b-/	(2A-X\	pp	(<4f/	[>2BBB-\	.	2r	.	((2A-X/ 2f	.	2r	.	2r	.	2r	.	2r	.
.	.	.	.	.	.	.	.	.	.	.	.	.	.	.	.	.	.	.	.	.	.	.	.	.	.	.	.	.	.	.	.	.	.	.	.	.	.	.	.	.	.	.	.	.	.	.	.	.	.	.	.	.	.	.	.	.	8d/L)	.	.	.	.	.	.	.	.	.	.	.	.	.	.
.	.	.	.	.	.	.	.	.	.	.	.	.	.	.	.	.	.	.	.	.	.	.	.	.	.	.	.	.	.	.	.	.	.	.	.	.	.	.	.	.	.	.	.	.	.	.	.	.	.	.	.	.	.	.	.	.	8f/J	.	.	.	.	.	.	.	.	.	.	.	.	.	.
=17	=17	=17	=17	=17	=17	=17	=17	=17	=17	=17	=17	=17	=17	=17	=17	=17	=17	=17	=17	=17	=17	=17	=17	=17	=17	=17	=17	=17	=17	=17	=17	=17	=17	=17	=17	=17	=17	=17	=17	=17	=17	=17	=17	=17	=17	=17	=17	=17	=17	=17	=17	=17	=17	=17	=17	=17	=17	=17	=17	=17	=17	=17	=17	=17	=17	=17	=17	=17	=17	=17	=17
2BB-/_	.	2BB-/_	.	2r	.	2r	.	2r	.	2r	.	2r	.	2ryy	2ryy	.	2r	.	.	2r	.	.	2r	2r	.	2r	.	.	2r	.	.	2r	.	.	2r	.	.	2ryy	2ryy	2ryy	.	2ryy	2Rg-XTTT/	.	2r	.	2r	.	2r	.	2e-/)	2BB-\]	.	2b-/_	2G\)	.	(<16en/LL	2BBB-\_>	.	2r	.	2G/)) 2eX	.	2r	.	2r	.	2r	.	2r	.
.	.	.	.	.	.	.	.	.	.	.	.	.	.	.	.	.	.	.	.	.	.	.	.	.	.	.	.	.	.	.	.	.	.	.	.	.	.	.	.	.	.	.	.	.	.	.	.	.	.	.	.	.	.	.	.	.	16d/J	.	.	.	.	.	.	.	.	.	.	.	.	.	.
.	.	.	.	.	.	.	.	.	.	.	.	.	.	.	.	.	.	.	.	.	.	.	.	.	.	.	.	.	.	.	.	.	.	.	.	.	.	.	.	.	.	.	.	.	.	.	.	.	.	.	.	.	.	.	.	.	8c/J)	.	.	.	.	.	.	.	.	.	.	.	.	.	.
.	.	.	.	.	.	.	.	.	.	.	.	.	.	.	.	.	.	.	.	.	.	.	.	.	.	.	.	.	.	.	.	.	.	.	.	.	.	.	.	.	.	.	.	.	.	.	.	.	.	.	.	.	.	.	.	.	8e/L	.	.	.	.	.	.	.	.	.	.	.	.	.	.
.	.	.	.	.	.	.	.	.	.	.	.	.	.	.	.	.	.	.	.	.	.	.	.	.	.	.	.	.	.	.	.	.	.	.	.	.	.	.	.	.	.	.	.	.	.	.	.	.	.	.	.	.	.	.	.	.	8g/J	.	.	.	.	.	.	.	.	.	.	.	.	.	.
*	*	*	*	*	*	*	*	*	*	*	*	*	*	*	*	*	*	*	*	*	*	*	*	*	*	*	*	*	*	*	*	*	*	*	*	*	*	*	*	*	*	*	*	*	*	*	*	*	*	*	*v	*v	*	*	*	*	*	*	*	*	*	*	*	*	*	*	*	*	*	*	*
!!LO:PB:g=original
=18	=18	=18	=18	=18	=18	=18	=18	=18	=18	=18	=18	=18	=18	=18	=18	=18	=18	=18	=18	=18	=18	=18	=18	=18	=18	=18	=18	=18	=18	=18	=18	=18	=18	=18	=18	=18	=18	=18	=18	=18	=18	=18	=18	=18	=18	=18	=18	=18	=18	=18	=18	=18	=18	=18	=18	=18	=18	=18	=18	=18	=18	=18	=18	=18	=18	=18	=18	=18	=18	=18
*	*	*	*	*	*	*	*	*	*	*	*	*	*	*	*	*	*	*	*	*	*	*	*	*	*	*	*	*	*	*	*	*	*	*	*	*	*	*	*	*	*	*	*	*	*	*	*	*	*	*	*	*^	*	*	*	*	*	*	*	*	*	*	*	*	*	*	*	*	*	*
!	!	!	!	!	!	!	!	!	!	!	!	!	!	!	!	!	!	!	!	!	!	!	!	!	!	!	!	!	!	!	!	!	!	!	!	!	!	!	!	!	!	!	!	!	!	!	!	!	!	!	!	!LO:DY:rj	!LO:DY:rj	!	!	!LO:DY:rj	!	!	!	!	!	!	!	!	!	!	!	!	!	!	!
2BB-/_	.	2BB-/_	.	2r	.	2r	.	2r	.	2r	.	2r	.	2r	2r	.	2ryy	.	.	2ryy	.	.	2ryy	2ryy	.	2ryy	.	.	2ryy	.	.	2ryy	.	.	2ryy	.	.	2ryy	2ryy	2ryy	.	2ryy	2Rg-XTT/	.	2r	.	2r	.	2r	.	[2BB-/ [2e-X	pp	pp	2b-/_	(2G-X\	pp	(4e-X/	2BBB-\_	.	2r	.	((2G-X/ 2e-X	.	2r	.	2r	.	2r	.	2r	.
.	.	.	.	.	.	.	.	.	.	.	.	.	.	.	.	.	.	.	.	.	.	.	.	.	.	.	.	.	.	.	.	.	.	.	.	.	.	.	.	.	.	.	.	.	.	.	.	.	.	.	.	.	.	.	.	.	8c/L)	.	.	.	.	.	.	.	.	.	.	.	.	.	.
.	.	.	.	.	.	.	.	.	.	.	.	.	.	.	.	.	.	.	.	.	.	.	.	.	.	.	.	.	.	.	.	.	.	.	.	.	.	.	.	.	.	.	.	.	.	.	.	.	.	.	.	.	.	.	.	.	8e-/J	.	.	.	.	.	.	.	.	.	.	.	.	.	.
*	*	*	*	*	*	*	*	*	*	*	*	*	*	*	*	*	*	*	*	*	*	*	*	*	*	*	*	*	*	*	*	*	*	*	*	*	*	*	*	*	*	*	*	*	*	*	*	*	*	*	*	*v	*v	*	*	*	*	*	*	*	*	*	*	*	*	*	*	*	*	*	*
=19	=19	=19	=19	=19	=19	=19	=19	=19	=19	=19	=19	=19	=19	=19	=19	=19	=19	=19	=19	=19	=19	=19	=19	=19	=19	=19	=19	=19	=19	=19	=19	=19	=19	=19	=19	=19	=19	=19	=19	=19	=19	=19	=19	=19	=19	=19	=19	=19	=19	=19	=19	=19	=19	=19	=19	=19	=19	=19	=19	=19	=19	=19	=19	=19	=19	=19	=19	=19	=19	=19
2BB-/]	.	2BB-/]	.	2r	.	2r	.	2r	.	2r	.	2r	.	2r	2r	.	2ryy	.	.	2ryy	.	.	2ryy	2ryy	.	2ryy	.	.	2ryy	.	.	2ryy	.	.	2ryy	.	.	2ryy	2ryy	2ryy	.	2ryy	2Rg-XTTT/	.	2r	.	2r	.	2r	.	2BB-/] 2e-]	.	2b-/]	2F\)	.	(16d/LL	2BBB-\]	.	2r	.	2F/)) 2d	.	2r	.	2r	.	2r	.	2r	.
.	.	.	.	.	.	.	.	.	.	.	.	.	.	.	.	.	.	.	.	.	.	.	.	.	.	.	.	.	.	.	.	.	.	.	.	.	.	.	.	.	.	.	.	.	.	.	.	.	.	.	.	.	.	.	.	16c/J	.	.	.	.	.	.	.	.	.	.	.	.	.	.
.	.	.	.	.	.	.	.	.	.	.	.	.	.	.	.	.	.	.	.	.	.	.	.	.	.	.	.	.	.	.	.	.	.	.	.	.	.	.	.	.	.	.	.	.	.	.	.	.	.	.	.	.	.	.	.	8B-/J)	.	.	.	.	.	.	.	.	.	.	.	.	.	.
.	.	.	.	.	.	.	.	.	.	.	.	.	.	.	.	.	.	.	.	.	.	.	.	.	.	.	.	.	.	.	.	.	.	.	.	.	.	.	.	.	.	.	.	.	.	.	.	.	.	.	.	.	.	.	.	8d/L	.	.	.	.	.	.	.	.	.	.	.	.	.	.
.	.	.	.	.	.	.	.	.	.	.	.	.	.	.	.	.	.	.	.	.	.	.	.	.	.	.	.	.	.	.	.	.	.	.	.	.	.	.	.	.	.	.	.	.	.	.	.	.	.	.	.	.	.	.	.	8f/J	.	.	.	.	.	.	.	.	.	.	.	.	.	.
=20	=20	=20	=20	=20	=20	=20	=20	=20	=20	=20	=20	=20	=20	=20	=20	=20	=20	=20	=20	=20	=20	=20	=20	=20	=20	=20	=20	=20	=20	=20	=20	=20	=20	=20	=20	=20	=20	=20	=20	=20	=20	=20	=20	=20	=20	=20	=20	=20	=20	=20	=20	=20	=20	=20	=20	=20	=20	=20	=20	=20	=20	=20	=20	=20	=20	=20	=20	=20	=20	=20
!	!	!	!	!	!	!	!	!	!	!	!	!	!	!	!LO:TX:a:i:B:t=(Der Vorhang fällt.)	!	!	!	!	!	!	!	!	!	!	!	!	!	!	!	!	!	!	!	!	!	!	!	!	!	!	!	!	!	!	!	!	!	!	!	!	!	!	!	!	!LO:TX:t=P:problem:dynam between	!	!LO:HP:a:t=dim.	!	!	!	!	!	!	!	!	!	!	!	!
[2BB-/	.	[2BB-/	.	2r	.	2r	.	2r	.	2r	.	2r	.	2r	2r	.	2ryy	.	.	2ryy	.	.	2ryy	2ryy	.	2ryy	.	.	2ryy	.	.	2ryy	.	.	2ryy	.	.	2ryy	2ryy	2ryy	.	2ryy	2Rg-XTTT/	.	2r	.	2r	.	2r	.	[2BB-/ 2e-X	.	[2b-/	2G-X\	.	(4e-/	[2BBB-\	>	2r	.	((2G-X/ 2e-	.	2r	.	2r	.	2r	.	2r	.
.	.	.	.	.	.	.	.	.	.	.	.	.	.	.	.	.	.	.	.	.	.	.	.	.	.	.	.	.	.	.	.	.	.	.	.	.	.	.	.	.	.	.	.	.	.	.	.	.	.	.	.	.	.	.	.	8c/L)	.	.	.	.	.	.	.	.	.	.	.	.	.	.
.	.	.	.	.	.	.	.	.	.	.	.	.	.	.	.	.	.	.	.	.	.	.	.	.	.	.	.	.	.	.	.	.	.	.	.	.	.	.	.	.	.	.	.	.	.	.	.	.	.	.	.	.	.	.	.	8e-/J	.	.	.	.	.	.	.	.	.	.	.	.	.	.
=21	=21	=21	=21	=21	=21	=21	=21	=21	=21	=21	=21	=21	=21	=21	=21	=21	=21	=21	=21	=21	=21	=21	=21	=21	=21	=21	=21	=21	=21	=21	=21	=21	=21	=21	=21	=21	=21	=21	=21	=21	=21	=21	=21	=21	=21	=21	=21	=21	=21	=21	=21	=21	=21	=21	=21	=21	=21	=21	=21	=21	=21	=21	=21	=21	=21	=21	=21	=21	=21	=21
!	!	!	!	!	!	!	!	!	!	!	!	!	!	!	!	!	!	!	!	!	!	!	!	!	!	!	!	!	!	!	!	!	!	!	!	!	!	!	!	!	!	!	!	!	!	!	!	!	!	!	!	!	!	!	!	!	!	!	!	!	!	!	!	!	!	!	!LO:TX:a:t=à/2.	!	!	!
2BB-/_	.	2BB-/_	.	2r	.	2r	.	2r	.	2r	.	2r	.	2r	2r	.	2ryy	.	.	2ryy	.	.	2ryy	2ryy	.	2ryy	.	.	2ryy	.	.	2ryy	.	.	2ryy	.	.	2ryy	2ryy	2ryy	.	2ryy	2Rg-XTTT/	.	2r	.	2r	.	2r	.	2BB-/_ [2c	.	2b-/_	[2E-X\	.	(4e-/	2BBB-\_	.	[2BB-/	.	[2G-X/)) [2B-	.	[2e-X\	pp	2r	.	(4e-/	mf	2r	.
.	.	.	.	.	.	.	.	.	.	.	.	.	.	.	.	.	.	.	.	.	.	.	.	.	.	.	.	.	.	.	.	.	.	.	.	.	.	.	.	.	.	.	.	.	.	.	.	.	.	.	.	.	.	.	.	8c/L)	.	.	.	.	.	.	.	.	.	.	8c/L)	.	.	.
.	.	.	.	.	.	.	.	.	.	.	.	.	.	.	.	.	.	.	.	.	.	.	.	.	.	.	.	.	.	.	.	.	.	.	.	.	.	.	.	.	.	.	.	.	.	.	.	.	.	.	.	.	.	.	.	8e-/J	.	.	.	.	.	.	.	.	.	.	8e-'/J	.	.	.
=22	=22	=22	=22	=22	=22	=22	=22	=22	=22	=22	=22	=22	=22	=22	=22	=22	=22	=22	=22	=22	=22	=22	=22	=22	=22	=22	=22	=22	=22	=22	=22	=22	=22	=22	=22	=22	=22	=22	=22	=22	=22	=22	=22	=22	=22	=22	=22	=22	=22	=22	=22	=22	=22	=22	=22	=22	=22	=22	=22	=22	=22	=22	=22	=22	=22	=22	=22	=22	=22	=22
!	!	!	!	!	!	!	!	!	!	!LO:TX:a:i:t=divisi.	!	!	!	!	!	!	!	!	!	!	!	!	!	!	!	!	!	!	!	!	!	!	!	!	!	!	!	!	!	!	!	!	!	!	!	!	!	!	!	!	!	!	!	!	!	!	!	!	!	!	!	!	!	!	!	!	!	!	!	!
2BB-/_	.	2BB-/_	.	2r	.	2r	.	2r	.	2r	.	2r	.	2r	8e-'/L	pp	2ryy	.	.	2ryy	.	.	2ryy	2ryy	.	2ryy	.	.	2ryy	.	.	2ryy	.	.	2ryy	.	.	2ryy	2ryy	2ryy	.	2ryy	4Rg-X/	.	2r	.	2r	.	2r	.	2BB-/_ 2c_	.	2b-/]	2E-X\_	.	[2e-/	2BBB-\_	.	2BB-/_	.	2G-X/_ 2B-_	.	2e-X\_	.	2r	.	8e-'/L	.	2r	.
.	.	.	.	.	.	.	.	.	.	.	.	.	.	.	8c'/J	.	.	.	.	.	.	.	.	.	.	.	.	.	.	.	.	.	.	.	.	.	.	.	.	.	.	.	.	.	.	.	.	.	.	.	.	.	.	.	.	.	.	.	.	.	.	.	.	.	.	.	8c'/J	.	.	.
.	.	.	.	.	.	.	.	.	.	.	.	.	.	.	8e-'/L	.	.	.	.	.	.	.	.	.	.	.	.	.	.	.	.	.	.	.	.	.	.	.	.	.	.	.	4r	.	.	.	.	.	.	.	.	.	.	.	.	.	.	.	.	.	.	.	.	.	.	.	8e-'/L	.	.	.
.	.	.	.	.	.	.	.	.	.	.	.	.	.	.	8g-X'/J	.	.	.	.	.	.	.	.	.	.	.	.	.	.	.	.	.	.	.	.	.	.	.	.	.	.	.	.	.	.	.	.	.	.	.	.	.	.	.	.	.	.	.	.	.	.	.	.	.	.	.	8g-X'/J	.	.	.
=23	=23	=23	=23	=23	=23	=23	=23	=23	=23	=23	=23	=23	=23	=23	=23	=23	=23	=23	=23	=23	=23	=23	=23	=23	=23	=23	=23	=23	=23	=23	=23	=23	=23	=23	=23	=23	=23	=23	=23	=23	=23	=23	=23	=23	=23	=23	=23	=23	=23	=23	=23	=23	=23	=23	=23	=23	=23	=23	=23	=23	=23	=23	=23	=23	=23	=23	=23	=23	=23	=23
*	*	*	*	*	*	*	*	*	*	*	*	*	*	*	*	*	*	*	*	*	*	*	*	*	*	*	*	*	*	*	*	*	*	*	*	*	*	*	*	*	*	*	*	*	*	*	*	*	*	*	*	*	*	*	*	*	*	*	*	*	*	*	*	*	*^	*	*	*	*	*
!	!	!	!	!	!	!LO:TX:a:i:t=divisi.	!	!	!	!	!	!	!	!	!	!	!	!	!	!	!	!	!	!	!	!	!	!	!	!	!	!	!	!	!	!	!	!	!	!	!	!	!	!	!	!	!	!	!	!	!	!	!LO:TX:a:t=+	!	!	!LO:TX:t=P:problem:dynam between	!	!LO:HP:a	!	!	!	!	!	!	!	!	!	!	!	!	!
2BB-/]	.	2BB-/_	.	2r	.	2r	.	2r	.	8r	pp	8r	pp	2r	8b-'\L	.	2ryy	.	.	2ryy	.	.	2ryy	2ryy	.	2ryy	.	.	2ryy	.	.	2ryy	.	.	2ryy	.	.	2ryy	2ryy	2ryy	.	2ryy	2r	.	2r	.	2r	.	2r	.	2BB-/] 2c]	.	[2b-/	2E-X\]	.	2e-/_	2BBB-\_	>	2BB-/]	.	2G-X/] 2B-]	.	2e-X\]	.	2r	2r	.	8b-'\L	.	2r	.
.	.	.	.	.	.	.	.	.	.	(8cv/L	.	(8cv/L	.	.	8cc'\J	.	.	.	.	.	.	.	.	.	.	.	.	.	.	.	.	.	.	.	.	.	.	.	.	.	.	.	.	.	.	.	.	.	.	.	.	.	.	.	.	.	.	.	.	.	.	.	.	.	.	.	.	8cc'\J	.	.	.
.	.	.	.	.	.	.	.	.	.	8e-/	.	8e-/	.	.	8ee-'\L	.	.	.	.	.	.	.	.	.	.	.	.	.	.	.	.	.	.	.	.	.	.	.	.	.	.	.	.	.	.	.	.	.	.	.	.	.	.	.	.	.	.	.	.	.	.	.	.	.	.	.	.	8ee-'\L	.	.	.
.	.	.	.	.	.	.	.	.	.	8g-X/J	.	8g-X/J	.	.	8gg-X'\J	.	.	.	.	.	.	.	.	.	.	.	.	.	.	.	.	.	.	.	.	.	.	.	.	.	.	.	.	.	.	.	.	.	.	.	.	.	.	.	.	.	.	.	.	.	.	.	.	.	.	.	.	8gg-X'\J	.	.	.
=24	=24	=24	=24	=24	=24	=24	=24	=24	=24	=24	=24	=24	=24	=24	=24	=24	=24	=24	=24	=24	=24	=24	=24	=24	=24	=24	=24	=24	=24	=24	=24	=24	=24	=24	=24	=24	=24	=24	=24	=24	=24	=24	=24	=24	=24	=24	=24	=24	=24	=24	=24	=24	=24	=24	=24	=24	=24	=24	=24	=24	=24	=24	=24	=24	=24	=24	=24	=24	=24	=24	=24
*	*	*	*	*	*	*	*	*	*	*	*	*	*	*	*	*	*	*	*	*	*	*	*	*	*	*	*	*	*	*	*	*	*	*	*	*	*	*	*	*	*	*	*	*	*	*	*	*	*	*	*	*	*	*	*	*	*	*	*	*	*	*	*	*	*	*	*	*^	*	*	*
!	!	!	!	!	!	!	!	!	!	!	!	!	!	!	!	!	!	!	!	!	!	!	!	!	!	!	!	!	!	!	!	!	!	!	!	!	!	!	!	!	!	!	!	!	!	!	!	!	!	!	!LO:TX:a:t=+	!LO:DY:rj	!LO:TX:b:t=+	!	!LO:DY:rj	!	!	!	!	!	!	!	!	!	!LO:TX:a:t=I.	!	!	!	!	!	!LO:TX:a:i:t=Piccolo.	!
2r	.	2BB-/]	.	2r	.	8B-v/	.	8B-v/	pp	8b-\)	.	8b-\)	.	8b->\	8bb-/	.	2ryy	.	.	2ryy	.	.	2ryy	2ryy	.	2ryy	.	.	2ryy	.	.	2ryy	.	.	2ryy	.	.	2ryy	2ryy	2ryy	.	2ryy	2r	.	2r	.	2r	.	2r	.	[2c\ [2g-X	p	2b-/_	[2e-X\	p	4e-/]	4BBB-\]	.	[2BB-/	.	[2G-X/ [2B-	.	[2e-X\	.	8b-/	2r	pp	8bb-/	8bb-\	p	2r	.
.	.	.	.	.	.	8r	.	8r	.	8r	.	8r	.	8r>	8r	.	.	.	.	.	.	.	.	.	.	.	.	.	.	.	.	.	.	.	.	.	.	.	.	.	.	.	.	.	.	.	.	.	.	.	.	.	.	.	.	.	.	.	.	.	.	.	.	.	8r	.	.	8r	8r	.	.	.
.	.	.	.	.	.	8cv/	.	8cv/	.	8ccv\	.	8ccv\	.	8cc>\	8ccc/	.	.	.	.	.	.	.	.	.	.	.	.	.	.	.	.	.	.	.	.	.	.	.	.	.	.	.	.	.	.	.	.	.	.	.	.	.	.	.	.	4r	4r	]	.	.	.	.	.	.	8cc/	.	.	8ccc/	8c\	.	.	.
.	.	.	.	.	.	8r	.	8r	.	8r	.	8r	.	8r>	8r	.	.	.	.	.	.	.	.	.	.	.	.	.	.	.	.	.	.	.	.	.	.	.	.	.	.	.	.	.	.	.	.	.	.	.	.	.	.	.	.	.	.	.	.	.	.	.	.	.	8r	.	.	8r	8r	.	.	.
*	*	*	*	*	*	*	*	*	*	*	*	*	*	*	*	*	*	*	*	*	*	*	*	*	*	*	*	*	*	*	*	*	*	*	*	*	*	*	*	*	*	*	*	*	*	*	*	*	*	*	*	*	*	*	*	*v	*v	*	*	*	*	*	*	*	*	*	*	*	*	*	*	*
=25	=25	=25	=25	=25	=25	=25	=25	=25	=25	=25	=25	=25	=25	=25	=25	=25	=25	=25	=25	=25	=25	=25	=25	=25	=25	=25	=25	=25	=25	=25	=25	=25	=25	=25	=25	=25	=25	=25	=25	=25	=25	=25	=25	=25	=25	=25	=25	=25	=25	=25	=25	=25	=25	=25	=25	=25	=25	=25	=25	=25	=25	=25	=25	=25	=25	=25	=25	=25	=25	=25	=25
*	*	*	*	*	*	*	*	*	*	*	*	*	*	*	*	*	*	*	*	*	*	*	*	*	*	*	*	*	*	*	*	*	*	*	*	*	*	*	*	*	*	*	*	*	*	*	*	*	*	*	*	*	*	*	*	*	*	*	*	*	*	*	*	*	*	*	*	*	*^	*	*
!	!	!	!	!	!	!	!	!	!	!	!	!	!	!	!	!LO:HP:t=dim.	!	!	!	!	!	!	!	!	!	!	!	!	!	!	!	!	!	!	!	!	!	!	!	!	!	!	!	!	!	!	!	!	!	!	!	!LO:HP:t=dim.	!	!	!LO:HP:t=dim.	!	!	!	!LO:HP:t=dim.	!	!LO:HP:t=dim.	!	!LO:HP:b:t=dim.	!	!	!	!	!	!LO:DY:rj	!LO:DY:rj	!	!LO:DY:a
2r	.	[2BB-/	.	2r	.	8dv/	.	8e-v/	.	8ee-v\	.	8ee-v\	.	8dd>\	8eee-/	>	2ryy	.	.	2ryy	.	.	2ryy	2ryy	.	2ryy	.	.	2ryy	.	.	2ryy	.	.	2ryy	.	.	2ryy	2ryy	2ryy	.	2ryy	2r	.	2r	.	2r	.	2r	.	2c\_ 2g-X_	>	2b-/_	2e-X\_	>	2r	.	2BB-/_	>	2G-X/_ 2B-_	>	2e-X\_	>	8ee-/	2r	.	8eee-/	8e-\	pp	pp	8ee-\	pp
.	.	.	.	.	.	8r	.	8r	.	8r	.	8r	.	8r>	8r	.	.	.	.	.	.	.	.	.	.	.	.	.	.	.	.	.	.	.	.	.	.	.	.	.	.	.	.	.	.	.	.	.	.	.	.	.	.	.	.	.	.	.	.	.	.	.	.	8r	.	.	8r	8r	.	.	8r	.
.	.	.	.	.	.	8g-Xv/	.	8g-Xv/	.	8gg-Xv\	.	8gg-Xv\	.	8gg-X>\	8ggg-X/	.	.	.	.	.	.	.	.	.	.	.	.	.	.	.	.	.	.	.	.	.	.	.	.	.	.	.	.	.	.	.	.	.	.	.	.	.	.	.	.	.	.	.	.	.	.	.	.	8gg-X/	.	.	8ggg-X/	8g-X\	.	.	8gg-X\	.
.	.	.	.	.	.	8r	.	8r	.	8r	.	8r	.	8r>	8r	.	.	.	.	.	.	.	.	.	.	.	.	.	.	.	.	.	.	.	.	.	.	.	.	.	.	.	.	.	.	.	.	.	.	.	.	.	.	.	.	.	.	.	.	.	.	.	.	8r	.	.	8r	8r	.	.	8r	.
*	*	*	*	*	*	*	*	*	*	*	*	*	*	*	*	*	*	*	*	*	*	*	*	*	*	*	*	*	*	*	*	*	*	*	*	*	*	*	*	*	*	*	*	*	*	*	*	*	*	*	*	*	*	*	*	*	*	*	*	*	*	*	*	*	*	*	*	*	*v	*v	*	*
=26	=26	=26	=26	=26	=26	=26	=26	=26	=26	=26	=26	=26	=26	=26	=26	=26	=26	=26	=26	=26	=26	=26	=26	=26	=26	=26	=26	=26	=26	=26	=26	=26	=26	=26	=26	=26	=26	=26	=26	=26	=26	=26	=26	=26	=26	=26	=26	=26	=26	=26	=26	=26	=26	=26	=26	=26	=26	=26	=26	=26	=26	=26	=26	=26	=26	=26	=26	=26	=26	=26	=26
!	!	!	!	!	!	!	!	!	!	!	!	!	!	!	!	!	!	!	!	!	!	!	!	!	!	!	!	!	!	!	!	!	!	!	!	!	!	!	!	!	!	!	!	!	!	!	!	!	!	!	!	!	!	!	!	!	!	!	!	!	!	!	!LO:DY:rj	!	!	!LO:DY:a:rj	!	!	!LO:DY:rj	!	!LO:DY:a:rj
2r	.	2BB-/_	.	2r	.	[2b-\	.	8b-v\	.	[2bb-\	.	8bb-v\	.	8bb->\	8bbb-/	.	2ryy	.	.	2ryy	.	.	2ryy	2ryy	.	2ryy	.	.	2ryy	.	.	2ryy	.	.	2ryy	.	.	2ryy	2ryy	2ryy	.	2ryy	2r	.	2r	.	2r	.	2r	.	2c\_ 2g-X_	pp	2b-/_	2e-X\_	pp	2r	.	2BB-/_	pp	2G-X/_ 2B-_	pp	2e-X\_	pp	[2bb-/	2r	pp	[2bbb-/	[2b-\	pp	[2bb-\	pp
.	.	.	.	.	.	.	.	8r	.	.	.	8r	.	8r>	8r	.	.	.	.	.	.	.	.	.	.	.	.	.	.	.	.	.	.	.	.	.	.	.	.	.	.	.	.	.	.	.	.	.	.	.	.	.	.	.	.	.	.	.	.	.	.	.	.	.	.	.	.	.	.	.	.
.	.	.	.	.	.	.	.	4r	.	.	.	4r	.	4r>	4r	.	.	.	.	.	.	.	.	.	.	.	.	.	.	.	.	.	.	.	.	.	.	.	.	.	.	.	.	.	.	.	.	.	.	.	.	.	.	.	.	.	.	.	.	.	.	.	.	.	.	.	.	.	.	.	.
=27	=27	=27	=27	=27	=27	=27	=27	=27	=27	=27	=27	=27	=27	=27	=27	=27	=27	=27	=27	=27	=27	=27	=27	=27	=27	=27	=27	=27	=27	=27	=27	=27	=27	=27	=27	=27	=27	=27	=27	=27	=27	=27	=27	=27	=27	=27	=27	=27	=27	=27	=27	=27	=27	=27	=27	=27	=27	=27	=27	=27	=27	=27	=27	=27	=27	=27	=27	=27	=27	=27	=27
2r	.	2BB-/_	.	2r	.	2b-\_	.	2r	.	2bb-\_	.	2r	.	2r	2r	.	2ryy	.	.	2ryy	.	.	2ryy	2ryy	.	2ryy	.	.	2ryy	.	.	2ryy	.	.	2ryy	.	.	2ryy	2ryy	2ryy	.	2ryy	2r	.	2r	.	2r	.	2r	.	2c\_ 2g-X_	.	2b-/_	2e-X\_	.	2r	.	2BB-/_	.	2G-X/_ 2B-_	.	2e-X\_	.	2bb-/_	2r	.	2bbb-/_	2b-\_	.	2bb-\_	.
=28	=28	=28	=28	=28	=28	=28	=28	=28	=28	=28	=28	=28	=28	=28	=28	=28	=28	=28	=28	=28	=28	=28	=28	=28	=28	=28	=28	=28	=28	=28	=28	=28	=28	=28	=28	=28	=28	=28	=28	=28	=28	=28	=28	=28	=28	=28	=28	=28	=28	=28	=28	=28	=28	=28	=28	=28	=28	=28	=28	=28	=28	=28	=28	=28	=28	=28	=28	=28	=28	=28	=28
!LO:TX:b:i:B:t=Ende des ersten Aktes.	!	!	!	!	!	!	!	!	!	!	!	!	!	!	!	!	!	!	!	!	!	!	!	!	!	!	!	!	!	!	!	!	!	!	!	!	!	!	!	!	!	!	!	!	!	!	!	!	!	!	!	!	!	!	!	!	!	!	!	!	!	!	!	!	!	!	!	!	!LO:HP:a	!	!LO:HP:a
2r	.	2BB-/_	<	2r	.	2b-\_	<	2r	.	2bb-\_	<	2r	.	2r	2r	.	2ryy	.	.	2ryy	.	.	2ryy	2ryy	.	2ryy	.	.	2ryy	.	.	2ryy	.	.	2ryy	.	.	2ryy	2ryy	2ryy	.	2ryy	2r	.	2r	.	2r	.	2r	.	2c\_ 2g-X_	<	2b-/_	2e-X\_	<	2r	.	2BB-/_	<	2G-X/_ 2B-_	<	2e-X\_	<	2bb-/_	2r	<	2bbb-/_	2b-\_	<	2bb-\_	<
=29	=29	=29	=29	=29	=29	=29	=29	=29	=29	=29	=29	=29	=29	=29	=29	=29	=29	=29	=29	=29	=29	=29	=29	=29	=29	=29	=29	=29	=29	=29	=29	=29	=29	=29	=29	=29	=29	=29	=29	=29	=29	=29	=29	=29	=29	=29	=29	=29	=29	=29	=29	=29	=29	=29	=29	=29	=29	=29	=29	=29	=29	=29	=29	=29	=29	=29	=29	=29	=29	=29	=29
2r	.	2BB-/]	[[	2r	.	2b-\_	[[	2r	.	2bb-\_	[[	2r	.	2r	2r	.	2ryy	.	.	2ryy	.	.	2ryy	2ryy	.	2ryy	.	.	2ryy	.	.	2ryy	.	.	2ryy	.	.	2ryy	2ryy	2ryy	.	2ryy	2r	.	2r	.	2r	.	2r	.	2c\] 2g-X]	[[	2b-/]	2e-X\]	[[	2r	.	2BB-/]	[[	2G-X/] 2B-]	[[	2e-X\]	[[	2bb-/_	2r	[[	2bbb-/]	2b-\]	[[	2bb-\]	[[
=30	=30	=30	=30	=30	=30	=30	=30	=30	=30	=30	=30	=30	=30	=30	=30	=30	=30	=30	=30	=30	=30	=30	=30	=30	=30	=30	=30	=30	=30	=30	=30	=30	=30	=30	=30	=30	=30	=30	=30	=30	=30	=30	=30	=30	=30	=30	=30	=30	=30	=30	=30	=30	=30	=30	=30	=30	=30	=30	=30	=30	=30	=30	=30	=30	=30	=30	=30	=30	=30	=30	=30
*	*	*	*	*	*	*	*	*	*	*	*	*	*	*	*	*	*	*	*	*	*	*	*	*	*	*	*	*	*	*	*	*	*	*	*	*	*	*	*	*	*	*	*	*	*	*	*	*	*	*	*	*	*	*	*	*^	*	*	*	*	*	*	*	*	*	*	*	*	*	*	*
!	!	!	!	!	!	!	!	!	!	!	!	!	!	!	!	!	!	!	!	!	!	!	!	!	!	!	!	!	!	!	!	!	!	!	!	!	!	!	!	!	!	!	!	!	!	!	!	!	!LO:TX:a:t=I. II.:rj	!LO:DY:rj	!	!	!	!	!	!LO:TX:t=P:problem:dynam between	!	!	!	!	!	!	!	!	!	!	!	!	!	!	!	!LO:DY:a:rj
4BB-/	ff	4BB-\ 4F 4d	ff	4B-\ 4b-	ff	4b-\]	ff	4B-/ 4f 4dd	ff	4bb-\]	ff	4B-/ 4f 4dd 4bb-	ff	2r	2r	.	2ryy	.	.	2ryy	.	.	2ryy	2ryy	.	2ryy	.	.	2ryy	.	.	2ryy	.	.	2ryy	.	.	2ryy	2ryy	2ryy	.	2ryy	4Rg-X/	ff	4BBB-/ 4BB-	ff	4BB-\ 4G	ff	4B-/ 4b-	ff	4d\ 4f	ff	4b-/	4B-\	ff	4B-/	4BBB-\	ff	4BB-/	ff	4F/ 4d	ff	4b-\	ff	4bb-/]	4b-\	ff	4bbb-/	4bb-\	ff	4bbb-\	ff
4r	.	4r	.	4r	.	4r	.	4r	.	4r	.	4r	.	.	.	.	.	.	.	.	.	.	.	.	.	.	.	.	.	.	.	.	.	.	.	.	.	.	.	.	.	.	4r	.	4r	.	4r	.	4r	.	4r	.	4r	4r	.	4r	4ryy	.	4r	.	4r	.	4r	.	4r	4ryy	.	4r	4ryy	.	4r	.
*	*	*	*	*	*	*	*	*	*	*	*	*	*	*	*	*	*	*	*	*	*	*	*	*	*	*	*	*	*	*	*	*	*	*	*	*	*	*	*	*	*	*	*	*	*	*	*	*	*	*	*	*	*v	*v	*	*	*	*	*	*	*	*	*	*	*v	*v	*	*v	*v	*	*	*
*	*	*	*	*	*	*	*	*	*	*	*	*	*	*	*	*	*	*	*	*	*	*	*	*	*	*	*	*	*	*	*	*	*	*	*	*	*	*	*	*	*	*	*	*	*	*	*	*	*	*	*	*	*	*	*v	*v	*	*	*	*	*	*	*	*	*	*	*	*	*
!!LO:PB:g=original
==	==	==	==	==	==	==	==	==	==	==	==	==	==	==	==	==	==	==	==	==	==	==	==	==	==	==	==	==	==	==	==	==	==	==	==	==	==	==	==	==	==	==	==	==	==	==	==	==	==	==	==	==	==	==	==	==	==	==	==	==	==	==	==	==	==	==	==	==
*-	*-	*-	*-	*-	*-	*-	*-	*-	*-	*-	*-	*-	*-	*-	*-	*-	*-	*-	*-	*-	*-	*-	*-	*-	*-	*-	*-	*-	*-	*-	*-	*-	*-	*-	*-	*-	*-	*-	*-	*-	*-	*-	*-	*-	*-	*-	*-	*-	*-	*-	*-	*-	*-	*-	*-	*-	*-	*-	*-	*-	*-	*-	*-	*-	*-	*-	*-	*-
!!!system-decoration: {(s1,s2)}(s3,s4){(s5,s6)}(s7){(s8,s9)}(s10){(s11,s12)}(s13)[(s14)][(s15)][(s16)][(s17)][(s18,s19,s20,s21)][(s22,s23,s24,s25)]{(s26,s27)}{(s28,s29)}{(s30,s31)}(s32){(s33,s34)}
!!!RDF**kern: < = below
!!!RDF**kern: > = above
!!!ENC: Berenika Jozajtis
!!!END: 2022-12-11
!!!ENC: Marta Chmielewska
!!!END: 2023-07-27
!!!YEC: Copyright 2022 Narodowy Instytut Fryderyka Chopina (https://polishscores.org)
!!!YEM: License CC-BY-4.0 (https://creativecommons.org/licenses/by/4.0)
